packages/astro-components-stencil/src/icons/toys.svg

<svg width="24" height="24" viewBox="0 0 24 24" fill="none" xmlns="http://www.w3.org/2000/svg">
<path fill-rule="evenodd" clip-rule="evenodd" d="M12 12.0001C9 12.0001 6.5 9.50012 6.5 6.50012C6.5 3.93012 8.33 1.73012 10.74 1.15012C11.38 1.00012 12 1.47012 12 2.12012V12.0001ZM12 12.0001C12 9.00012 14.5 6.50012 17.5 6.50012C20.07 6.50012 22.27 8.33012 22.85 10.7401C23 11.3801 22.53 12.0001 21.88 12.0001H12ZM12 12.0001V21.8801C12 22.5301 12.62 23.0001 13.26 22.8501C15.67 22.2701 17.5 20.0701 17.5 17.5001C17.5 14.5001 15 12.0001 12 12.0001ZM12 12.0001C12 15.0001 9.5 17.5001 6.5 17.5001C3.93 17.5001 1.73 15.6701 1.15 13.2601C1 12.6201 1.47 12.0001 2.12 12.0001H12Z" fill="black"/>
</svg>

<svg xmlns="http://www.w3.org/2000/svg" viewBox="0 0 24 24"><g xmlns="http://www.w3.org/2000/svg" id="toys" fill-rule="nonzero">
            <path d="M12 12c0-3 2.5-5.5 5.5-5.5 2.57 0 4.77 1.83 5.35 4.24.15.64-.32 1.26-.97 1.26H12zm0 0c0 3-2.5 5.5-5.5 5.5-2.57 0-4.77-1.83-5.35-4.24-.15-.64.32-1.26.97-1.26H12zm0 0c-3 0-5.5-2.5-5.5-5.5 0-2.57 1.83-4.77 4.24-5.35.64-.15 1.26.32 1.26.97V12zm0 0c3 0 5.5 2.5 5.5 5.5 0 2.57-1.83 4.77-4.24 5.35-.64.15-1.26-.32-1.26-.97V12z"/>
        </g></svg>
